public/front/assets/imgs/brand/hero.svg

<svg width="243" height="107" viewBox="0 0 243 107" fill="none" xmlns="http://www.w3.org/2000/svg">
<g clip-path="url(#clip0_993_210)">
<path d="M0 89.8836L25.763 106.361V32.3586L0 14.6816V89.8836Z" fill="#D9241C"/>
<path d="M41.6445 50.335L67.7075 35.055V17.377L41.6445 0V50.335Z" fill="black"/>
<path d="M43.4453 71.6069V74.6039L68.3133 91.0799V55.1289L43.4453 71.6069Z" fill="black"/>
<path d="M100.6 73.4047H91.3125V35.0537H100.6V49.1347H119.174V35.0537H128.461V73.4047H119.174V57.2227H100.6V73.4047Z" fill="#D9241C"/>
<path d="M178.199 53.6271V73.1041H189.584V53.6271C189.584 50.9311 190.783 48.2351 192.877 46.4391C194.976 44.3401 197.671 43.4421 200.969 43.4421V32.9551C194.675 32.9551 189.283 35.0531 184.79 38.9481C180.297 42.8431 178.199 47.9351 178.199 53.6271Z" fill="#D9241C"/>
<path d="M232.427 53.6274C232.427 56.3274 231.529 58.7184 229.731 60.5204C227.93 62.3174 225.535 63.5164 223.136 63.5164C220.44 63.5164 218.346 62.6144 216.544 60.5204C214.747 58.7184 213.849 56.3284 213.849 53.6274C213.849 50.9314 214.747 48.5364 216.544 46.7394C218.346 44.9414 220.74 44.0394 223.136 44.0394C225.836 44.0394 227.93 44.9414 229.731 47.0364C231.529 48.8334 232.427 51.2274 232.427 53.9284V53.6274ZM223.136 34.1504C217.744 34.1504 213.251 35.9514 209.657 39.8424C206.058 43.7384 203.965 48.2354 203.965 53.6264C203.965 59.0174 205.762 63.8154 209.657 67.4104C213.252 71.3064 217.745 73.1024 223.136 73.1024C228.532 73.1024 233.025 71.3054 236.619 67.4104C240.213 63.5154 242.311 59.0174 242.311 53.6264C242.311 48.2354 240.514 43.4404 236.619 39.8424C233.025 35.9514 228.532 34.1504 223.136 34.1504Z" fill="#D9241C"/>
<path d="M171.907 55.4241H147.937V57.5231C147.937 60.8161 148.535 63.2151 149.734 64.4111C150.933 65.6151 152.43 66.2131 154.227 66.2131C158.122 66.2131 160.22 64.1141 160.818 59.6211L172.203 60.2191C170.105 68.9081 164.116 73.4061 154.227 73.4061C147.936 73.4061 143.443 71.6051 140.146 68.3071C136.848 64.7121 135.352 60.2191 135.352 54.5271C135.352 47.9361 137.149 43.1421 140.447 39.5481C143.74 36.2501 148.534 34.4531 154.227 34.4531C159.322 34.4531 163.815 35.9531 167.112 38.9501C170.707 41.9421 172.203 47.6361 172.203 55.7271L171.907 55.4241ZM159.92 49.4311C159.92 48.8331 159.92 48.5361 159.92 48.5361C159.92 43.7381 157.822 41.3431 153.926 41.3431C150.035 41.3431 147.937 44.0391 147.937 49.7321H159.619L159.92 49.4311Z" fill="#D9241C"/>
</g>
<defs>
<clipPath id="clip0_993_210">
<rect width="242.312" height="106.361" fill="white"/>
</clipPath>
</defs>
</svg>

<svg xmlns="http://www.w3.org/2000/svg" width="243" height="107" fill="none"><g clip-path="url(#a)"><path fill="#D9241C" d="m0 89.884 25.763 16.477V32.359L0 14.682z"/><path fill="#000" d="m41.645 50.335 26.062-15.28V17.377L41.646 0zM43.445 71.607v2.997L68.313 91.08V55.129z"/><path fill="#D9241C" d="M100.6 73.405h-9.287V35.054h9.287v14.08h18.574v-14.08h9.287v38.35h-9.287V57.224H100.6zM178.199 53.627v19.477h11.385V53.627c0-2.696 1.199-5.392 3.293-7.188 2.099-2.099 4.794-2.997 8.092-2.997V32.955c-6.294 0-11.686 2.098-16.179 5.993s-6.591 8.987-6.591 14.68M232.427 53.627c0 2.7-.898 5.091-2.696 6.893-1.801 1.797-4.196 2.996-6.595 2.996-2.696 0-4.79-.902-6.592-2.996-1.797-1.802-2.695-4.192-2.695-6.893 0-2.696.898-5.09 2.695-6.888 1.802-1.798 4.196-2.7 6.592-2.7 2.7 0 4.794.902 6.595 2.997 1.798 1.797 2.696 4.191 2.696 6.892zm-9.291-19.477c-5.392 0-9.885 1.801-13.479 5.692-3.599 3.896-5.692 8.393-5.692 13.784s1.797 10.19 5.692 13.784c3.595 3.896 8.088 5.692 13.479 5.692 5.396 0 9.889-1.797 13.483-5.692s5.692-8.393 5.692-13.784c0-5.39-1.797-10.186-5.692-13.784-3.594-3.89-8.087-5.692-13.483-5.692M171.907 55.424h-23.97v2.1c0 3.292.598 5.691 1.797 6.887q1.798 1.804 4.493 1.802c3.895 0 5.993-2.099 6.591-6.592l11.385.598c-2.098 8.69-8.087 13.187-17.976 13.187-6.291 0-10.784-1.8-14.081-5.099-3.298-3.595-4.794-8.088-4.794-13.78 0-6.59 1.797-11.385 5.095-14.979 3.293-3.298 8.087-5.095 13.78-5.095 5.095 0 9.588 1.5 12.885 4.497 3.595 2.992 5.091 8.686 5.091 16.777zm-11.987-5.993v-.895c0-4.798-2.098-7.193-5.994-7.193-3.891 0-5.989 2.696-5.989 8.39h11.682z"/></g><defs><clipPath id="a"><path fill="#fff" d="M0 0h242.312v106.361H0z"/></clipPath></defs></svg>
